frontend/src/assets/icons/youAreTheWorstNightmareOf.svg

<?xml version="1.0" encoding="UTF-8" standalone="no"?>
<svg
   id="svg8"
   version="1.1"
   viewBox="0 0 200 200"
   height="200mm"
   width="200mm"
   xml:space="preserve"
   sodipodi:docname="youAreTheWorstNightmareOf.svg"
   inkscape:version="1.2.2 (b0a8486541, 2022-12-01)"
   xmlns:inkscape="http://www.inkscape.org/namespaces/inkscape"
   xmlns:sodipodi="http://sodipodi.sourceforge.net/DTD/sodipodi-0.dtd"
   xmlns="http://www.w3.org/2000/svg"
   xmlns:svg="http://www.w3.org/2000/svg"><sodipodi:namedview
     id="namedview5"
     pagecolor="#ffffff"
     bordercolor="#666666"
     borderopacity="1.0"
     inkscape:showpageshadow="2"
     inkscape:pageopacity="0.0"
     inkscape:pagecheckerboard="0"
     inkscape:deskcolor="#d1d1d1"
     inkscape:document-units="mm"
     showgrid="false"
     inkscape:zoom="0.41907862"
     inkscape:cx="-336.45238"
     inkscape:cy="536.8921"
     inkscape:window-width="1854"
     inkscape:window-height="1011"
     inkscape:window-x="66"
     inkscape:window-y="1112"
     inkscape:window-maximized="1"
     inkscape:current-layer="svg8" /><defs
     id="defs8" /><path
     id="path246"
     d="m 88.714482,3.6313029 c -0.741644,-0.00666 -1.483357,0.00414 -2.224154,0.032556 -1.693249,0.06496 -3.381688,0.2228521 -5.056539,0.4749065 C 66.756508,6.3476014 52.962284,16.0655 46.40647,29.05249 c -0.743203,1.472282 -1.218518,2.231611 -1.413351,2.563668 -0.199508,0.04868 -0.559533,0.149973 -1.457792,0.342615 -11.111699,2.38303 -20.777209,10.389756 -25.73848,20.974947 -2.051663,4.377335 -2.724382,7.961842 -2.724382,14.831653 0,6.946123 0.682388,10.475897 2.826184,15.059029 1.058032,2.261943 2.288336,4.341425 3.687114,6.286955 -4.003467,3.594456 -7.525962,8.11207 -9.831958,12.798703 -2.4938787,5.06848 -3.2067874,8.39239 -3.1874028,15.62695 0.019331,7.19402 0.7378812,10.5366 3.2323608,15.67605 7.081287,14.58976 23.246406,23.26212 38.783162,20.31814 1.116316,-0.21152 2.175748,-0.4434 3.179651,-0.66766 0.08995,0.16226 0.06883,0.0939 0.164331,0.27698 1.913517,3.66808 5.181575,7.59596 8.472351,10.75594 7.628196,7.32497 16.490433,11.65819 26.853659,13.0979 14.977493,2.0808 30.397183,-3.55299 40.767533,-14.79909 l 2.05104,-2.22467 1.81023,0.92966 c 5.44892,2.79565 8.62629,3.53156 16.12304,3.53156 7.3354,0 10.64402,-0.71614 15.75201,-3.23081 7.74637,-3.81351 14.23231,-10.41715 17.89245,-18.22627 2.05296,-4.38015 2.7249,-7.96103 2.7249,-14.86163 0,-7.22257 -0.72364,-10.57147 -3.18585,-15.5391 l -0.90021,-1.81643 -0.0253,0.0295 c 5.01794,-5.71515 8.8384,-14.713453 10.18543,-22.699394 2.08732,-12.375213 -1.21785,-25.525524 -8.86509,-35.91357 -4.66747,-6.340304 -11.78108,-12.582726 -18.77922,-15.113289 -0.78472,-0.28376 0.0532,0.713227 -0.83406,-1.431954 -3.12357,-7.552057 -10.19464,-14.2041 -17.77359,-17.673857 -7.46645,-3.418256 -17.14025,-4.370072 -24.94318,-2.185396 -0.42789,0.119802 -0.42065,0.111541 -0.63304,0.160197 -0.30784,-0.22383 -0.61964,-0.434907 -1.26555,-0.98857 C 110.96737,7.752796 99.83914,3.7312376 88.714482,3.6313029 Z m 0.09302,11.4189411 c 0.642308,0.01544 1.287128,0.04826 1.932699,0.09819 7.746848,0.599112 15.623742,3.647736 21.206972,8.433594 1.74516,1.495924 2.90598,2.870721 5.69733,3.648356 2.79135,0.777635 4.85962,0.0067 6.67556,-0.501778 3.48682,-0.976244 13.28599,-0.188956 17.13694,1.574064 3.87343,1.773315 10.8966,9.015205 11.99617,11.673706 1.38745,3.354618 4.27484,6.626332 7.48068,7.785572 2.08446,0.753752 10.59506,7.23373 13.48393,11.157975 5.82152,7.90799 8.33661,18.21784 6.80888,27.275338 -0.88152,5.226267 -5.13378,14.368864 -7.51788,17.084224 l -5.00383,5.69888 4.28552,8.64857 c 2.27137,4.5826 2.00195,3.50562 2.00195,10.48618 0,6.56939 0.0839,6.3374 -1.64848,10.0335 -2.44681,5.22039 -7.42073,10.28717 -12.6137,12.84366 -4.75538,2.34108 -3.61878,2.06034 -10.72648,2.06034 -7.32458,0 -5.71284,0.39806 -10.92749,-2.27738 l -9.50795,-4.87671 -7.9158,8.58397 c -7.80645,8.46568 -19.74577,12.78272 -30.834291,11.24221 -8.306221,-1.15396 -14.363829,-4.10398 -20.538798,-10.0335 -2.273736,-2.18335 -5.637586,-6.61222 -6.2637,-7.81244 -0.914334,-1.75268 -1.64274,-3.08321 -2.863391,-4.4452 -0.610327,-0.681 -1.370289,-1.44142 -2.728516,-2.04071 -1.358227,-0.59928 -3.509105,-0.73421 -5.078243,-0.11369 0.648538,-0.25644 -0.453296,0.12393 -1.435571,0.35192 -0.982275,0.22798 -2.234202,0.4909 -3.445268,0.72037 -9.86116,1.86855 -21.619934,-4.19921 -26.427844,-14.10508 -2.311987,-4.76346 -2.072694,-3.79625 -2.091345,-10.73681 -0.01876,-6.99977 -0.297394,-5.86315 2.019515,-10.57197 1.847923,-3.75565 6.142516,-8.838821 9.462471,-11.226703 0.419089,-0.30143 0.88301,-0.548377 1.707389,-1.420069 0.82438,-0.871691 2.058765,-3.352695 1.720309,-5.43326 -0.338458,-2.080565 -1.172528,-2.884299 -1.685169,-3.509863 -0.51264,-0.625564 -0.964477,-1.086191 -1.512052,-1.660364 -0.05069,-0.05315 -2.438307,-3.518461 -3.450952,-5.683374 -1.866255,-3.989787 -1.753898,-3.608917 -1.753898,-10.236584 0,-6.534872 -0.08148,-6.310493 1.648478,-10.001457 3.421332,-7.299632 10.681242,-13.147163 17.820101,-14.678174 2.110521,-0.452624 4.423719,-0.887886 6.551021,-2.747636 2.127302,-1.859751 2.853217,-3.704772 4.09174,-6.15828 4.551179,-9.015831 15.980655,-17.195029 26.562203,-18.787484 1.847817,-0.278085 3.753867,-0.388419 5.68079,-0.342098 z m 13.457581,18.383374 v 20.12642 h 33.48374 c -0.32013,-0.518284 -0.65602,-1.047849 -1.02681,-1.60817 -8.24448,-12.458249 -20.4193,-18.235685 -32.45693,-18.51825 z m -3.827161,0.09405 C 85.554508,34.46691 73.332181,41.635384 66.8507,53.560038 H 98.437919 Z M 65.040991,57.386161 c -1.355528,3.32861 -2.292778,6.964576 -2.724898,10.882023 H 98.437919 V 57.386161 Z m 37.224089,0 v 10.882023 h 37.46231 c -0.13395,-4.820644 -0.62665,-7.85642 -1.93425,-10.882023 z M 62.059778,72.094307 c -0.0079,0.320281 -0.01467,0.641178 -0.01602,0.964799 -0.0145,3.446042 0.557255,7.696255 1.417485,11.193632 h 19.926432 c -2.372459,-1.040841 -3.708397,-4.525141 -2.224154,-6.926709 0.01847,-0.02986 0.03812,-0.05664 0.05684,-0.08578 0.851681,-1.328347 1.94833,-1.932048 2.993616,-1.928565 1.624078,0.0054 3.118941,1.471557 3.369304,3.934644 0.0241,0.237027 0.03876,0.481795 0.03876,0.736906 0,2.171037 -0.583425,3.662411 -1.624707,4.269506 H 98.437919 V 72.094307 Z m 40.205302,0 v 12.158431 h 14.41979 c -1.02327,-0.612593 -1.61386,-2.122023 -1.61386,-4.269506 0,-2.846528 1.03716,-4.574915 2.74505,-4.574915 1.70793,0 2.74454,1.728387 2.74454,4.574915 0,2.147483 -0.59065,3.656913 -1.61386,4.269506 h 19.70888 c 0.74948,-3.225893 1.09116,-7.22077 1.11053,-12.158431 z M 64.650317,88.078861 c 0.117076,0.290616 0.235678,0.569168 0.356568,0.822689 2.553119,5.353932 4.198263,6.477252 10.979175,7.494117 5.076194,0.761213 4.939572,1.467493 4.612121,3.255615 H 98.437919 V 88.078861 Z m 37.614763,0 v 11.572421 h 17.53071 c 0.97966,-1.591463 2.99743,-2.487954 7.16959,-3.458187 2.43933,-0.56728 4.46643,-1.402926 6.13606,-2.597774 0.84995,-0.608237 1.6058,-1.311892 2.27583,-2.120284 0.80468,-0.970851 1.48303,-2.096867 2.04948,-3.396176 z M 63.414953,99.546722 c -5.543193,7.499528 -13.577638,12.757418 -23.05234,14.190348 -5.248724,0.79378 -8.160035,2.56564 -7.604703,4.62917 0.185213,0.68811 2.725326,4.51621 5.644616,8.50698 6.332643,8.6569 6.624258,8.73235 16.039331,4.15168 9.417868,-4.58202 17.679562,-10.04248 23.567037,-15.41973 C 72.54574,111.5003 67.397624,105.9425 63.414953,99.546722 Z m 72.669417,1.202968 c -4.21237,6.32487 -9.54724,11.82669 -14.96704,15.90962 1.91051,1.78796 4.07653,3.57406 6.49211,5.33766 7.85715,5.73652 22.51443,13.27258 25.81444,13.27258 1.95595,0 2.93464,-0.95773 7.72511,-7.5613 3.01691,-4.15875 5.48546,-8.21587 5.48546,-9.01599 0,-1.91609 -2.1427,-2.9502 -7.99125,-3.85661 -6.92305,-1.07295 -15.08224,-7.37357 -20.87642,-12.64034 -1.74818,-1.58912 -0.22978,0.44394 -1.68241,-1.44562 z m -55.599877,2.72771 c 0.17705,2.06335 0.576368,4.54381 1.031462,6.242 h -0.001 c 0.968349,3.61334 2.254143,4.84517 16.922998,4.25866 V 103.4774 Z m 21.780587,0 v 10.3694 c 7.24983,0.11307 15.92042,1.78397 16.59898,-5.95778 0.007,-1.75618 -0.004,-3.19367 0.0527,-4.41162 z m -17.989755,15.33243 0.06873,5.81824 c -0.163351,6.04582 -0.349992,14.75868 4.316532,18.56683 3.240005,2.24075 6.610336,2.32435 11.395173,2.32286 2.53052,0.0566 5.8394,0.0291 10.06967,-2.27325 6.06027,-3.83704 5.30416,-11.57201 5.36349,-18.08675 l 0.0687,-5.81825 -1.36839,0.98288 c -6.15773,4.42314 -10.19604,5.37712 -17.273363,4.44211 -4.768025,-0.62992 -7.21491,-2.05727 -11.271663,-4.97127 z m -47.603662,35.87168 c -3.003918,0 -5.004946,-0.0368 -7.319966,0.57051 -2.31502,0.6073 -4.162769,1.91503 -5.732467,3.16415 -2.730546,2.17284 -4.917277,4.85168 -6.52725,7.94112 -6.427292,12.33351 0.906904,27.67415 14.492139,31.01981 5.619998,1.38407 11.506052,0.17589 16.61914,-2.76572 3.357783,-1.93178 5.712354,-4.83455 7.496184,-8.06049 1.783828,-3.22595 2.982246,-6.81259 2.982246,-10.6624 0,-6.88045 -3.540111,-13.16337 -8.955008,-17.47232 -1.569701,-1.24912 -3.417446,-2.55685 -5.732467,-3.16415 -2.315022,-0.60729 -4.318629,-0.57051 -7.322551,-0.57051 z m 0,11.38122 c 2.879735,0 4.187467,0.13226 4.433838,0.19689 0.246372,0.0646 0.211636,0.007 1.535307,1.06092 2.42153,1.92695 4.660181,6.69529 4.660181,8.56795 0,1.22027 -0.559292,3.34541 -1.560628,5.15627 -1.001335,1.81086 -2.459452,3.26793 -3.213241,3.70159 -2.602877,1.49746 -6.510035,2.00349 -8.222237,1.58181 -6.75621,-1.66386 -10.119545,-8.95775 -7.121529,-14.71073 0.467618,-0.89733 2.803321,-3.7252 3.521749,-4.29689 1.323674,-1.05333 1.288943,-0.9963 1.535306,-1.06092 0.246365,-0.0646 1.551524,-0.19689 4.431254,-0.19689 z"
     sodipodi:nodetypes="sssscsssscscssccsccccssssccccsscsscsssssscscssscccsssscccssssscscscsssssscsssscsscccccccccccccccccccccccscssscccccccsssccccccscccccccssscccscsscccccsssscccccccccccccccccccccsccsscsssssssssscssscssss" /></svg>

<?xml version="1.0" encoding="UTF-8" standalone="no"?>
<svg
   id="svg8"
   version="1.1"
   viewBox="0 0 200 200"
   height="200mm"
   width="200mm"
   xml:space="preserve"
   xmlns="http://www.w3.org/2000/svg"
   xmlns:svg="http://www.w3.org/2000/svg"><defs
     id="defs8" /><path
     id="path246"
     d="M 88.714482 3.6313029 C 87.972838 3.6246406 87.231125 3.6354393 86.490328 3.663859 C 84.797079 3.7288185 83.10864 3.8867111 81.433789 4.1387655 C 66.756508 6.3476014 52.962284 16.0655 46.40647 29.05249 C 45.663267 30.524772 45.187952 31.284101 44.993119 31.616158 C 44.793611 31.664837 44.433586 31.766131 43.535327 31.958773 C 32.423628 34.341803 22.758118 42.348529 17.796847 52.93372 C 15.745184 57.311055 15.072465 60.895562 15.072465 67.765373 C 15.072465 74.711496 15.754853 78.24127 17.898649 82.824402 C 18.956681 85.086345 20.186985 87.165827 21.585763 89.111357 C 17.582296 92.705813 14.059801 97.223427 11.753805 101.91006 C 9.2599263 106.97854 8.5470176 110.30245 8.5664022 117.53701 C 8.5857332 124.73103 9.3042834 128.07361 11.798763 133.21306 C 18.88005 147.80282 35.045169 156.47518 50.581925 153.5312 C 51.698241 153.31968 52.757673 153.0878 53.761576 152.86354 C 53.851526 153.0258 53.830405 152.95748 53.925907 153.14052 C 55.839424 156.8086 59.107482 160.73648 62.398258 163.89646 C 70.026454 171.22143 78.888691 175.55465 89.251917 176.99436 C 104.22941 179.07516 119.6491 173.44137 130.01945 162.19527 L 132.07049 159.9706 L 133.88072 160.90026 C 139.32964 163.69591 142.50701 164.43182 150.00376 164.43182 C 157.33916 164.43182 160.64778 163.71568 165.75577 161.20101 C 173.50214 157.3875 179.98808 150.78386 183.64822 142.97474 C 185.70118 138.59459 186.37312 135.01371 186.37312 128.11311 C 186.37312 120.89054 185.64948 117.54164 183.18727 112.57401 L 182.28706 110.75758 L 182.26174 110.78704 C 187.27968 105.07189 191.10014 96.073587 192.44717 88.087646 C 194.53449 75.712433 191.22932 62.562122 183.58208 52.174076 C 178.91461 45.833772 171.801 39.59135 164.80286 37.060787 C 164.01814 36.777027 164.85608 37.774014 163.9688 35.628833 C 160.84523 28.076776 153.77416 21.424733 146.19521 17.954976 C 138.72876 14.53672 129.05496 13.584904 121.25203 15.76958 C 120.82414 15.889382 120.83138 15.881121 120.61899 15.929777 C 120.31115 15.705947 119.99935 15.49487 119.35344 14.941207 C 110.96737 7.752796 99.83914 3.7312376 88.714482 3.6313029 z M 88.807499 15.050244 C 89.449807 15.065684 90.094627 15.098503 90.740198 15.148429 C 98.487046 15.747541 106.36394 18.796165 111.94717 23.582023 C 113.69233 25.077947 114.85315 26.452744 117.6445 27.230379 C 120.43585 28.008014 122.50412 27.237054 124.32006 26.728601 C 127.80688 25.752357 137.60605 26.539645 141.457 28.302665 C 145.33043 30.07598 152.3536 37.31787 153.45317 39.976371 C 154.84062 43.330989 157.72801 46.602703 160.93385 47.761943 C 163.01831 48.515695 171.52891 54.995673 174.41778 58.919918 C 180.2393 66.827908 182.75439 77.137758 181.22666 86.195256 C 180.34514 91.421523 176.09288 100.56412 173.70878 103.27948 L 168.70495 108.97836 L 172.99047 117.62693 C 175.26184 122.20953 174.99242 121.13255 174.99242 128.11311 C 174.99242 134.6825 175.07628 134.45051 173.34394 138.14661 C 170.89713 143.367 165.92321 148.43378 160.73024 150.99027 C 155.97486 153.33135 157.11146 153.05061 150.00376 153.05061 C 142.67918 153.05061 144.29092 153.44867 139.07627 150.77323 L 129.56832 145.89652 L 121.65252 154.48049 C 113.84607 162.94617 101.90675 167.26321 90.818229 165.7227 C 82.512008 164.56874 76.4544 161.61872 70.279431 155.6892 C 68.005695 153.50585 64.641845 149.07698 64.015731 147.87676 C 63.101397 146.12408 62.372991 144.79355 61.15234 143.43156 C 60.542013 142.75056 59.782051 141.99014 58.423824 141.39085 C 57.065597 140.79157 54.914719 140.65664 53.345581 141.27716 C 53.994119 141.02072 52.892285 141.40109 51.91001 141.62908 C 50.927735 141.85706 49.675808 142.11998 48.464742 142.34945 C 38.603582 144.218 26.844808 138.15024 22.036898 128.24437 C 19.724911 123.48091 19.964204 124.44812 19.945553 117.50756 C 19.926793 110.50779 19.648159 111.64441 21.965068 106.93559 C 23.812991 103.17994 28.107584 98.096769 31.427539 95.708887 C 31.846628 95.407457 32.310549 95.16051 33.134928 94.288818 C 33.959308 93.417127 35.193693 90.936123 34.855237 88.855558 C 34.516779 86.774993 33.682709 85.971259 33.170068 85.345695 C 32.657428 84.720131 32.205591 84.259504 31.658016 83.685331 C 31.607326 83.632181 29.219709 80.16687 28.207064 78.001957 C 26.340809 74.01217 26.453166 74.39304 26.453166 67.765373 C 26.453166 61.230501 26.371689 61.45488 28.101644 57.763916 C 31.522976 50.464284 38.782886 44.616753 45.921745 43.085742 C 48.032266 42.633118 50.345464 42.197856 52.472766 40.338106 C 54.600068 38.478355 55.325983 36.633334 56.564506 34.179826 C 61.115685 25.163995 72.545161 16.984797 83.126709 15.392342 C 84.974526 15.114257 86.880576 15.003923 88.807499 15.050244 z M 102.26508 33.433618 L 102.26508 53.560038 L 135.74882 53.560038 C 135.42869 53.041754 135.0928 52.512189 134.72201 51.951868 C 126.47753 39.493619 114.30271 33.716183 102.26508 33.433618 z M 98.437919 33.527669 C 85.554508 34.46691 73.332181 41.635384 66.8507 53.560038 L 98.437919 53.560038 L 98.437919 33.527669 z M 65.040991 57.386161 C 63.685463 60.714771 62.748213 64.350737 62.316093 68.268184 L 98.437919 68.268184 L 98.437919 57.386161 L 65.040991 57.386161 z M 102.26508 57.386161 L 102.26508 68.268184 L 139.72739 68.268184 C 139.59344 63.44754 139.10074 60.411764 137.79314 57.386161 L 102.26508 57.386161 z M 62.059778 72.094307 C 62.051878 72.414588 62.045108 72.735485 62.043758 73.059106 C 62.029258 76.505148 62.601013 80.755361 63.461243 84.252738 L 83.387675 84.252738 C 81.015216 83.211897 79.679278 79.727597 81.163521 77.326029 C 81.181991 77.296169 81.201645 77.269387 81.220365 77.240247 C 82.072046 75.9119 83.168695 75.308199 84.213981 75.311682 C 85.838059 75.317082 87.332922 76.783239 87.583285 79.246326 C 87.607384 79.483353 87.622042 79.728121 87.622042 79.983232 C 87.622042 82.154269 87.038617 83.645643 85.997335 84.252738 L 98.437919 84.252738 L 98.437919 72.094307 L 62.059778 72.094307 z M 102.26508 72.094307 L 102.26508 84.252738 L 116.68487 84.252738 C 115.6616 83.640145 115.07101 82.130715 115.07101 79.983232 C 115.07101 77.136704 116.10817 75.408317 117.81606 75.408317 C 119.52399 75.408317 120.5606 77.136704 120.5606 79.983232 C 120.5606 82.130715 119.96995 83.640145 118.94674 84.252738 L 138.65562 84.252738 C 139.4051 81.026845 139.74678 77.031968 139.76615 72.094307 L 102.26508 72.094307 z M 64.650317 88.078861 C 64.767393 88.369477 64.885995 88.648029 65.006885 88.90155 C 67.560004 94.255482 69.205148 95.378802 75.98606 96.395667 C 81.062254 97.15688 80.925632 97.86316 80.598181 99.651282 L 98.437919 99.651282 L 98.437919 88.078861 L 64.650317 88.078861 z M 102.26508 88.078861 L 102.26508 99.651282 L 119.79579 99.651282 C 120.77545 98.059819 122.79322 97.163328 126.96538 96.193095 C 129.40471 95.625815 131.43181 94.790169 133.10144 93.595321 C 133.95139 92.987084 134.70724 92.283429 135.37727 91.475037 C 136.18195 90.504186 136.8603 89.37817 137.42675 88.078861 L 102.26508 88.078861 z M 67.220703 96.893311 C 61.67751 104.39284 53.643065 109.65073 44.168363 111.08366 C 38.919639 111.87744 36.008328 113.6493 36.56366 115.71283 C 36.748873 116.40094 39.288986 120.22904 42.208276 124.21981 C 48.540919 132.87671 48.832534 132.95216 58.247607 128.37149 C 67.665475 123.78947 75.927169 118.32901 81.814644 112.95176 C 76.35149 108.84689 71.203374 103.28909 67.220703 96.893311 z M 132.95364 96.955839 C 128.74127 103.28071 123.4064 108.78253 117.9866 112.86546 C 119.89711 114.65342 122.06313 116.43952 124.47871 118.20312 C 132.33586 123.93964 146.99314 131.4757 150.29315 131.4757 C 152.2491 131.4757 153.22779 130.51797 158.01826 123.9144 C 161.03517 119.75565 163.50372 115.69853 163.50372 114.89841 C 163.50372 112.98232 161.36102 111.94821 155.51247 111.0418 C 148.58942 109.96885 143.56096 107.46208 137.76678 102.19531 C 136.0186 100.60619 134.40627 98.845402 132.95364 96.955839 z M 80.484493 103.4774 C 80.661543 105.54075 81.060861 108.02121 81.515955 109.7194 L 81.514921 109.7194 C 82.48327 113.33274 83.769064 114.56457 98.437919 113.97806 L 98.437919 103.4774 L 80.484493 103.4774 z M 102.26508 103.4774 L 102.26508 113.8468 C 109.51491 113.95987 118.1855 115.63077 118.86406 107.88902 C 118.87106 106.13284 118.86007 104.69535 118.91677 103.4774 L 102.26508 103.4774 z M 84.358675 114.78628 L 84.427405 120.60452 C 84.264054 126.65034 84.077413 135.3632 88.743937 139.17135 C 91.983942 141.4121 95.354273 141.4957 100.13911 141.49421 C 102.66963 141.55081 105.97851 141.52333 110.20878 139.22096 C 116.26905 135.38392 115.51294 127.64895 115.57227 121.13421 L 115.641 115.31596 L 114.27261 116.29884 C 108.11488 120.72198 104.07657 121.67596 96.999247 120.74095 C 92.231222 120.11103 89.784337 118.68368 85.727584 115.76968 L 84.358675 114.78628 z M 36.671663 154.68151 C 33.667745 154.68151 31.666717 154.64471 29.351697 155.25202 C 27.036677 155.85932 25.188928 157.16705 23.61923 158.41617 C 20.888684 160.58901 18.701953 163.26785 17.09198 166.35729 C 10.664688 178.6908 17.998884 194.03144 31.584119 197.3771 C 37.204117 198.76117 43.090171 197.55299 48.203259 194.61138 C 51.561042 192.6796 53.915613 189.77683 55.699443 186.55089 C 57.483271 183.32494 58.681689 179.7383 58.681689 175.88849 C 58.681689 169.00804 55.141578 162.72512 49.726681 158.41617 C 48.15698 157.16705 46.309235 155.85932 43.994214 155.25202 C 41.679192 154.64473 39.675585 154.68151 36.671663 154.68151 z M 36.671663 166.06273 C 39.551398 166.06273 40.85913 166.19499 41.105501 166.25962 C 41.351873 166.32422 41.317137 166.267 42.640808 167.32054 C 45.062338 169.24749 47.300989 174.01583 47.300989 175.88849 C 47.300989 177.10876 46.741697 179.2339 45.740361 181.04476 C 44.739026 182.85562 43.280909 184.31269 42.52712 184.74635 C 39.924243 186.24381 36.017085 186.74984 34.304883 186.32816 C 27.548673 184.6643 24.185338 177.37041 27.183354 171.61743 C 27.650972 170.7201 29.986675 167.89223 30.705103 167.32054 C 32.028777 166.26721 31.994046 166.32424 32.240409 166.25962 C 32.486774 166.19502 33.791933 166.06273 36.671663 166.06273 z " /></svg>
